symbols/web/alarm_off/materialsymbolsoutlined/alarm_off_wght200grad200fill1_20px.svg

<svg xmlns="http://www.w3.org/2000/svg" height="20" width="20"><path d="M16.458 13.833 6.646 4.229q.666-.312 1.489-.531.823-.219 1.74-.219 1.542 0 2.875.573t2.312 1.542q.98.968 1.542 2.291.563 1.323.563 2.782 0 .916-.177 1.718-.178.803-.532 1.448Zm1.125-7.354-3.437-3.417 1.062-1.02 3.396 3.396Zm-.416 12.709-2.75-2.709q-1.084.875-2.25 1.25-1.167.375-2.292.375-1.542 0-2.885-.573-1.344-.573-2.334-1.614-.989-1.042-1.562-2.375-.573-1.334-.573-2.875 0-1.188.396-2.302.395-1.115 1.208-2.177l-.896-.876-1.104 1.105-1-1.021 1.104-1.104L.854 2.896l1.042-1.063 16.312 16.292Z"/></svg>

<svg xmlns="http://www.w3.org/2000/svg" height="20" width="20"><path d="M16.458 13.833 6.646 4.229Q7.312 3.917 8.135 3.698Q8.958 3.479 9.875 3.479Q11.417 3.479 12.75 4.052Q14.083 4.625 15.062 5.594Q16.042 6.562 16.604 7.885Q17.167 9.208 17.167 10.667Q17.167 11.583 16.99 12.385Q16.812 13.188 16.458 13.833ZM17.583 6.479 14.146 3.062 15.208 2.042 18.604 5.438ZM17.167 19.188 14.417 16.479Q13.333 17.354 12.167 17.729Q11 18.104 9.875 18.104Q8.333 18.104 6.99 17.531Q5.646 16.958 4.656 15.917Q3.667 14.875 3.094 13.542Q2.521 12.208 2.521 10.667Q2.521 9.479 2.917 8.365Q3.312 7.25 4.125 6.188L3.229 5.312L2.125 6.417L1.125 5.396L2.229 4.292L0.854 2.896L1.896 1.833L18.208 18.125Z"/></svg>
